assets/users-more-com.svg

<!DOCTYPE svg PUBLIC "-//W3C//DTD SVG 1.1//EN" "http://www.w3.org/Graphics/SVG/1.1/DTD/svg11.dtd">
<!-- Uploaded to: SVG Repo, www.svgrepo.com, Transformed by: SVG Repo Mixer Tools -->
<svg width="800px" height="800px" viewBox="0 0 24 24" fill="none" xmlns="http://www.w3.org/2000/svg">
<g id="SVGRepo_bgCarrier" stroke-width="0"/>
<g id="SVGRepo_tracerCarrier" stroke-linecap="round" stroke-linejoin="round"/>
<g id="SVGRepo_iconCarrier"> <path d="M3 19H1V18C1 16.1362 2.27477 14.57 4 14.126M6 10.8293C4.83481 10.4175 4 9.30623 4 8.00001C4 6.69379 4.83481 5.58255 6 5.17072M21 19H23V18C23 16.1362 21.7252 14.57 20 14.126M18 5.17072C19.1652 5.58255 20 6.69379 20 8.00001C20 9.30623 19.1652 10.4175 18 10.8293M10 14H14C16.2091 14 18 15.7909 18 18V19H6V18C6 15.7909 7.79086 14 10 14ZM15 8C15 9.65685 13.6569 11 12 11C10.3431 11 9 9.65685 9 8C9 6.34315 10.3431 5 12 5C13.6569 5 15 6.34315 15 8Z" stroke="#d1d7db" stroke-width="1.5" stroke-linecap="round" stroke-linejoin="round"/> </g>
</svg>

<svg xmlns="http://www.w3.org/2000/svg" width="800" height="800" fill="none" viewBox="0 0 24 24"><path stroke="#d1d7db" stroke-linecap="round" stroke-linejoin="round" stroke-width="1.5" d="M3 19H1v-1a4.002 4.002 0 0 1 3-3.874m2-3.297a3.001 3.001 0 0 1 0-5.658M21 19h2v-1a4.002 4.002 0 0 0-3-3.874m-2-8.955a3.001 3.001 0 0 1 0 5.658M10 14h4a4 4 0 0 1 4 4v1H6v-1a4 4 0 0 1 4-4Zm5-6a3 3 0 1 1-6 0 3 3 0 0 1 6 0Z"/></svg>
